flaticon/interaction/speech-bubble.svg

<svg xmlns="http://www.w3.org/2000/svg" width="32" height="32" viewBox="0 0 24 24">
    <path d="M 21.199219 17.601562 L 19.199219 17.601562 L 19.199219 15.601562 C 19.199219 15.378906 19.019531 15.199219 18.800781 15.199219 C 18.578125 15.199219 18.398438 15.378906 18.398438 15.601562 L 18.398438 17.601562 L 16.398438 17.601562 C 16.179688 17.601562 16 17.777344 16 18 C 16 18.222656 16.179688 18.398438 16.398438 18.398438 L 18.398438 18.398438 L 18.398438 20.398438 C 18.398438 20.621094 18.578125 20.800781 18.800781 20.800781 C 19.019531 20.800781 19.199219 20.621094 19.199219 20.398438 L 19.199219 18.398438 L 21.199219 18.398438 C 21.421875 18.398438 21.601562 18.222656 21.601562 18 C 21.601562 17.777344 21.421875 17.601562 21.199219 17.601562 Z M 21.199219 17.601562"/>
    <path d="M 24 7.195312 C 24 3.226562 20.769531 0 16.800781 0 L 7.199219 0 C 3.230469 0 0 3.226562 0 7.195312 L 0 12.792969 C 0 16.628906 3.015625 19.773438 6.800781 19.984375 L 6.800781 23.320312 C 6.800781 23.597656 6.964844 23.84375 7.21875 23.949219 C 7.304688 23.984375 7.390625 24 7.480469 24 C 7.65625 24 7.828125 23.929688 7.960938 23.800781 L 8.710938 23.050781 C 10.1875 21.574219 12.042969 20.59375 14.09375 20.195312 C 14.921875 21.96875 16.71875 23.199219 18.800781 23.199219 C 21.667969 23.199219 24 20.867188 24 18 C 24 17.136719 23.785156 16.324219 23.414062 15.609375 C 23.796875 14.710938 24 13.765625 24 12.792969 Z M 18.800781 22.398438 C 16.988281 22.398438 15.429688 21.300781 14.757812 19.730469 L 14.71875 19.628906 C 14.707031 19.609375 14.703125 19.585938 14.695312 19.566406 C 14.648438 19.449219 14.609375 19.332031 14.574219 19.214844 C 14.570312 19.195312 14.566406 19.175781 14.558594 19.15625 C 14.527344 19.046875 14.503906 18.9375 14.480469 18.824219 C 14.472656 18.773438 14.464844 18.722656 14.457031 18.671875 C 14.445312 18.589844 14.429688 18.507812 14.421875 18.421875 C 14.40625 18.28125 14.398438 18.140625 14.398438 18 C 14.398438 15.574219 16.375 13.601562 18.800781 13.601562 C 18.980469 13.601562 19.160156 13.613281 19.335938 13.636719 C 19.378906 13.640625 19.421875 13.648438 19.46875 13.65625 C 19.609375 13.679688 19.75 13.707031 19.890625 13.742188 C 19.925781 13.75 19.957031 13.757812 19.992188 13.769531 C 20.339844 13.867188 20.675781 14.007812 20.988281 14.1875 C 21.007812 14.199219 21.027344 14.210938 21.046875 14.222656 C 21.183594 14.304688 21.316406 14.394531 21.445312 14.492188 C 21.464844 14.507812 21.488281 14.523438 21.511719 14.542969 C 21.792969 14.761719 22.046875 15.019531 22.269531 15.304688 C 22.292969 15.332031 22.3125 15.359375 22.332031 15.390625 C 22.429688 15.519531 22.519531 15.65625 22.601562 15.796875 C 22.617188 15.824219 22.636719 15.847656 22.648438 15.875 L 22.675781 15.917969 C 23.007812 16.539062 23.199219 17.246094 23.199219 18 C 23.199219 20.425781 21.226562 22.398438 18.800781 22.398438 Z M 22.0625 13.957031 C 22.046875 13.945312 22.03125 13.933594 22.015625 13.921875 C 21.886719 13.820312 21.75 13.722656 21.609375 13.632812 C 21.578125 13.613281 21.546875 13.59375 21.515625 13.574219 C 21.386719 13.496094 21.257812 13.421875 21.125 13.355469 C 21.085938 13.335938 21.046875 13.316406 21.011719 13.300781 C 20.878906 13.238281 20.742188 13.179688 20.605469 13.128906 C 20.566406 13.113281 20.523438 13.097656 20.484375 13.085938 C 20.347656 13.039062 20.207031 12.996094 20.066406 12.960938 C 20.023438 12.953125 19.980469 12.9375 19.933594 12.929688 C 19.792969 12.894531 19.648438 12.871094 19.5 12.851562 C 19.457031 12.847656 19.414062 12.835938 19.371094 12.832031 C 19.183594 12.8125 18.992188 12.800781 18.800781 12.800781 C 15.933594 12.800781 13.601562 15.132812 13.601562 18 C 13.601562 18.15625 13.609375 18.308594 13.625 18.460938 C 13.628906 18.511719 13.632812 18.5625 13.640625 18.613281 C 13.652344 18.714844 13.667969 18.820312 13.6875 18.921875 C 13.703125 19.011719 13.722656 19.101562 13.742188 19.191406 C 13.761719 19.269531 13.78125 19.351562 13.804688 19.429688 C 11.652344 19.875 9.703125 20.925781 8.144531 22.484375 L 7.601562 23.027344 L 7.601562 17.59375 C 7.601562 17.371094 7.421875 17.195312 7.199219 17.195312 C 6.980469 17.195312 6.800781 17.371094 6.800781 17.59375 L 6.800781 19.171875 C 3.457031 18.964844 0.800781 16.1875 0.800781 12.792969 L 0.800781 7.195312 C 0.800781 3.667969 3.671875 0.800781 7.199219 0.800781 L 16.800781 0.800781 C 20.328125 0.800781 23.199219 3.667969 23.199219 7.195312 L 23.199219 12.792969 C 23.199219 13.472656 23.09375 14.136719 22.878906 14.78125 C 22.871094 14.773438 22.863281 14.765625 22.855469 14.753906 C 22.621094 14.460938 22.355469 14.191406 22.0625 13.957031 Z M 22.0625 13.957031"/>
</svg>

<svg xmlns="http://www.w3.org/2000/svg" width="32" height="32" viewBox="0 0 24 24">
    <path d="M21.2 17.602h-2v-2a.401.401 0 1 0-.802 0v2h-2a.398.398 0 1 0 0 .796h2v2a.401.401 0 0 0 .8 0l.001-2h2a.398.398 0 1 0 0-.796zm0 0"/>
    <path d="M24 7.195C24 3.227 20.77 0 16.8 0H7.2C3.23 0 0 3.227 0 7.195v5.598c0 3.836 3.016 6.98 6.8 7.191v3.336a.677.677 0 0 0 1.16.48l.75-.75a10.36 10.36 0 0 1 5.384-2.855A5.197 5.197 0 0 0 18.8 23.2C21.668 23.2 24 20.867 24 18c0-.863-.215-1.676-.586-2.39A7.148 7.148 0 0 0 24 12.792zm-5.2 15.203a4.397 4.397 0 0 1-4.042-2.668l-.04-.101c-.011-.02-.015-.043-.023-.063a4.162 4.162 0 0 1-.12-.351c-.005-.02-.009-.04-.016-.059a4.564 4.564 0 0 1-.079-.332l-.023-.152c-.012-.082-.027-.164-.035-.25a3.817 3.817 0 0 1-.024-.422 4.406 4.406 0 0 1 4.403-4.398c.18 0 .36.011.535.035a5.383 5.383 0 0 1 .656.133 4.375 4.375 0 0 1 1.453.722c.02.016.043.031.067.051a4.371 4.371 0 0 1 1.09 1.254c.015.027.035.05.046.078l.028.043a4.4 4.4 0 0 1-3.875 6.48zm3.262-8.441l-.046-.035a5.073 5.073 0 0 0-.407-.29l-.093-.058a5.509 5.509 0 0 0-.391-.219 5.27 5.27 0 0 0-1.059-.395c-.043-.007-.086-.023-.132-.03a3.863 3.863 0 0 0-.434-.078c-.043-.004-.086-.016-.129-.02A5.205 5.205 0 0 0 13.601 18c0 .156.008.309.024.46a4.206 4.206 0 0 0 .063.46c.015.092.035.182.054.271.02.079.04.16.063.239a11.166 11.166 0 0 0-5.66 3.054l-.543.543v-5.433a.398.398 0 0 0-.403-.399.398.398 0 0 0-.398.399v1.578c-3.344-.207-6-2.985-6-6.379V7.195C.8 3.668 3.67.801 7.199.801h9.602c3.527 0 6.398 2.867 6.398 6.394v5.598c0 .68-.105 1.344-.32 1.988a5.1 5.1 0 0 0-.816-.824zm0 0"/>
</svg>
